Papirus/22x22/panel/battery-low-charging.svg

<svg xmlns="http://www.w3.org/2000/svg" width="22" height="22" version="1.1">
 <defs>
  <style id="current-color-scheme" type="text/css">
   .ColorScheme-Text { color:#dfdfdf; } .ColorScheme-NeutralText { color:#ff9800; } .ColorScheme-PositiveText { color:#4caf50; } .ColorScheme-NegativeText { color:#f44336; }
  </style>
 </defs>
 <path style="opacity:0.3;fill:currentColor" class="ColorScheme-PositiveText" d="M 9,4 V 5 H 6 v 12 c 0,0.55 0.446,1 1,1 h 8 c 0.554,0 1,-0.45 1,-1 V 5 H 13 V 4 Z m 2,4 v 3 h 3 l -3,5 V 13 H 8 Z"/>
 <path style="fill:currentColor" class="ColorScheme-PositiveText" d="m 6,14 v 3 c 0,0.55 0.446,1 1,1 h 8 c 0.554,0 1,-0.45 1,-1 V 14 H 12.199219 L 11,16 v -2 z"/>
</svg>

<svg xmlns="http://www.w3.org/2000/svg" width="22" height="22" version="1.1">
 <defs>
  <style id="current-color-scheme" type="text/css">
   .ColorScheme-Text { color:#dfdfdf; } .ColorScheme-NeutralText { color:#ff9800; } .ColorScheme-PositiveText { color:#4caf50; } .ColorScheme-NegativeText { color:#f44336; }
  </style>
 </defs>
 <path style="opacity:0.3;fill:currentColor" class="ColorScheme-PositiveText" d="M 9,4 V 5 H 6 V 17 C 6,17.55 6.446,18 7,18 H 15 C 15.554,18 16,17.55 16,17 V 5 H 13 V 4 Z M 11,8 V 11 H 14 L 11,16 V 13 H 8 Z"/>
 <path style="fill:currentColor" class="ColorScheme-PositiveText" d="M 6 13 L 6 17 C 6 17.55 6.446 18 7 18 L 15 18 C 15.554 18 16 17.55 16 17 L 16 13 L 12.801 13 L 11 16 L 11 13 L 8 13 L 6 13 z"/>
</svg>
